assets/images/widget-3.svg

<?xml version="1.0" encoding="UTF-8"?>
<svg width="47px" height="48px" viewBox="0 0 47 48" version="1.1" xmlns="http://www.w3.org/2000/svg" xmlns:xlink="http://www.w3.org/1999/xlink">
    <!-- Generator: Sketch 63.1 (92452) - https://sketch.com -->
    <title>Group</title>
    <desc>Created with Sketch.</desc>
    <defs>
        <linearGradient x1="50%" y1="0%" x2="50%" y2="100%" id="linearGradient-1">
            <stop stop-color="#062FF9" offset="0%"></stop>
            <stop stop-color="#0225D0" offset="100%"></stop>
        </linearGradient>
        <linearGradient x1="50%" y1="0%" x2="50%" y2="100%" id="linearGradient-2">
            <stop stop-color="#062FF9" offset="0%"></stop>
            <stop stop-color="#0225D0" offset="100%"></stop>
        </linearGradient>
        <linearGradient x1="50%" y1="0%" x2="50%" y2="100%" id="linearGradient-3">
            <stop stop-color="#062FF9" offset="0%"></stop>
            <stop stop-color="#0225D0" offset="100%"></stop>
        </linearGradient>
        <linearGradient x1="50%" y1="0%" x2="50%" y2="100%" id="linearGradient-4">
            <stop stop-color="#062FF9" offset="0%"></stop>
            <stop stop-color="#0225D0" offset="100%"></stop>
        </linearGradient>
        <linearGradient x1="50%" y1="0%" x2="50%" y2="100%" id="linearGradient-5">
            <stop stop-color="#062FF9" offset="0%"></stop>
            <stop stop-color="#0225D0" offset="100%"></stop>
        </linearGradient>
        <linearGradient x1="50%" y1="0%" x2="50%" y2="100%" id="linearGradient-6">
            <stop stop-color="#062FF9" offset="0%"></stop>
            <stop stop-color="#0225D0" offset="100%"></stop>
        </linearGradient>
        <linearGradient x1="50%" y1="0%" x2="50%" y2="100%" id="linearGradient-7">
            <stop stop-color="#062FF9" offset="0%"></stop>
            <stop stop-color="#0225D0" offset="100%"></stop>
        </linearGradient>
        <linearGradient x1="50%" y1="0%" x2="50%" y2="100%" id="linearGradient-8">
            <stop stop-color="#062FF9" offset="0%"></stop>
            <stop stop-color="#0225D0" offset="100%"></stop>
        </linearGradient>
    </defs>
    <g id="Mobile---375px" stroke="none" stroke-width="1" fill="none" fill-rule="evenodd">
        <g id="Mobile-1---375px" transform="translate(-164.000000, -1224.000000)" fill-rule="nonzero">
            <g id="Group-5" transform="translate(136.000000, 1200.000000)">
                <g id="noun_Cloud-Device_3060763" transform="translate(28.000000, 24.000000)">
                    <g id="Group">
                        <path d="M11.0639909,44.7748509 C10.6968034,44.7748509 10.4030828,45.0657745 10.4030828,45.4294109 C10.4030828,45.7930473 10.6968034,46.0839709 11.0639909,46.0839709 C11.4311784,46.0839709 11.7249431,45.7930473 11.7249431,45.4294109 C11.7249431,45.0657745 11.4311784,44.7748509 11.0639909,44.7748509 Z" id="Path" fill="url(#linearGradient-1)"></path>
                        <path d="M6.81197438,44.7748509 C6.44478688,44.7748509 6.15102219,45.0657745 6.15102219,45.4294109 C6.15102219,45.7930473 6.44478688,46.0839709 6.81197438,46.0839709 C7.17916188,46.0839709 7.47292656,45.7930473 7.47292656,45.4294109 C7.47292656,45.0657745 7.17916188,44.7748509 6.81197438,44.7748509 Z" id="Path" fill="url(#linearGradient-2)"></path>
                        <path d="M8.93432547,44.7748509 C8.57448906,44.7748509 8.27337328,45.0657745 8.27337328,45.4294109 C8.27337328,45.7930473 8.57448906,46.0839709 8.93432547,46.0839709 C9.30151297,46.0839709 9.60258469,45.7930473 9.60258469,45.4294109 C9.60258469,45.0657745 9.30151297,44.7748509 8.93432547,44.7748509 Z" id="Path" fill="url(#linearGradient-3)"></path>
                        <path d="M42.5496434,28.3710909 C45.2596267,27.11576 47,24.4308364 47,21.4577382 C47,17.6139855 44.1600323,14.4080218 40.347598,13.8860073 C39.6519466,9.50887273 35.8151236,6.24325091 31.3063181,6.24325091 C30.332412,6.24325091 29.3692572,6.39594909 28.438738,6.69779636 C26.6917259,2.84055273 22.8477355,0.366829091 18.5504961,0.366829091 C12.6833833,0.366829091 7.89094016,5.01029818 7.72312812,10.8433891 C3.2978725,11.5458036 0,15.3504945 0,19.8213745 C0,23.0072727 1.70133391,25.9626182 4.44282188,27.6017382 L4.44282188,41.6182545 C4.44282188,42.2452073 4.69633547,42.8125891 5.10301766,43.2333091 L3.65430141,43.2333091 C2.64202422,43.2333091 1.81836391,44.0486473 1.81836391,45.0514909 L1.81836391,45.8149818 C1.81836391,46.8178255 2.64202422,47.6331636 3.65430141,47.6331636 L43.3399558,47.6331636 C44.352233,47.6331636 45.1758933,46.8178255 45.1758933,45.8149818 L45.1758933,45.0514909 C45.1758933,44.0486473 44.352233,43.2333091 43.3399558,43.2333091 L41.8896313,43.2333091 C42.296218,42.8125891 42.5496434,42.2452073 42.5496434,41.6182545 L42.5496434,28.3710909 Z M0.734375,19.8213745 C0.734375,15.6104364 3.9142775,12.0415418 8.13119828,11.52024 C8.31479203,11.4975127 8.45284719,11.2773455 8.45284719,11.0941018 C8.45284719,5.57989818 12.98281,1.09410182 18.5505034,1.09410182 C22.6652286,1.09410182 26.3338723,3.52663273 27.8969308,7.29083636 C27.9722336,7.47194182 28.1794963,7.56285091 28.3634425,7.49325091 C29.313687,7.14666182 30.3040872,6.97052364 31.3063181,6.97052364 C35.5418847,6.97052364 39.1330739,10.1040436 39.6591141,14.2595855 C39.6802714,14.4279127 39.8161748,14.5585891 39.9864984,14.5756364 C43.5662241,14.9342982 46.265625,17.8931055 46.265625,21.4577382 C46.265625,24.0337309 44.8244875,26.3732218 42.5496434,27.5649818 L42.5496434,20.2361455 C42.5496434,18.9449527 41.4889563,17.8945236 40.1851542,17.8945236 L6.80766359,17.8945236 C5.50386156,17.8945236 4.44282187,18.9449527 4.44282187,20.2361455 L4.44282187,26.75248 C2.14001281,25.2063127 0.734375,22.6061745 0.734375,19.8213745 Z M5.17719687,20.2361455 C5.17719687,19.3462327 5.90870047,18.6217964 6.80766359,18.6217964 L40.1851542,18.6217964 C41.0841173,18.6217964 41.8152684,19.3462255 41.8152684,20.2361455 C41.8152684,27.6383345 41.8152684,34.2111782 41.8152684,41.6182473 C41.8152684,42.50816 41.0841173,43.2325964 40.1851542,43.2325964 L6.80766359,43.2325964 C5.90870047,43.2325964 5.17719687,42.5081673 5.17719687,41.6182473 C5.17719687,34.5607782 5.17719687,28.1584364 5.17719687,20.2361455 Z M19.3458316,43.9605745 L27.6480731,43.9605745 L27.6480731,44.7020509 C27.6480731,44.9023345 27.483485,45.0656873 27.2808856,45.0656873 L19.7130191,45.0656873 C19.5104197,45.0656873 19.3458316,44.9023345 19.3458316,44.7020509 L19.3458316,43.9605745 Z M44.4415183,45.0514836 L44.4415183,45.8149745 C44.4415183,46.4165382 43.9473941,46.9058836 43.3399558,46.9058836 L3.65430141,46.9058836 C3.04686312,46.9058836 2.55273891,46.4165382 2.55273891,45.8149745 L2.55273891,45.0514836 C2.55273891,44.44992 3.04686312,43.9605745 3.65430141,43.9605745 L18.6114566,43.9605745 L18.6114566,44.7020509 C18.6114566,45.3036145 19.1055808,45.79296 19.7130191,45.79296 L27.2808856,45.79296 C27.8883239,45.79296 28.3824481,45.3036145 28.3824481,44.7020509 L28.3824481,43.9605745 L43.3399631,43.9605745 C43.9473941,43.9605745 44.4415183,44.44992 44.4415183,45.0514836 Z" id="Shape" fill="url(#linearGradient-4)"></path>
                        <path d="M8.13836578,41.9847273 L38.8558988,41.9847273 C39.7928731,41.9847273 40.5552131,41.2297527 40.5552131,40.3014909 L40.5552131,21.5564582 C40.5552131,20.6289018 39.7928658,19.8739273 38.8558988,19.8739273 L8.13836578,19.8739273 C7.20139141,19.8739273 6.43905141,20.6289018 6.43905141,21.5564582 L6.43905141,40.3014836 C6.43905141,41.2297527 7.20139141,41.9847273 8.13836578,41.9847273 Z M7.17342641,21.5564582 C7.17342641,21.0294691 7.60623766,20.6012 8.13836578,20.6012 L38.8558987,20.6012 C39.3880342,20.6012 39.8208381,21.0294691 39.8208381,21.5564582 L39.8208381,40.3014836 C39.8208381,40.8284727 39.3880269,41.2574473 38.8558987,41.2574473 L8.13836578,41.2574473 C7.60623031,41.2574473 7.17342641,40.8284727 7.17342641,40.3014836 L7.17342641,21.5564582 Z" id="Shape" fill="url(#linearGradient-5)"></path>
                        <path d="M37.1906447,22.2496436 C37.7227802,22.2496436 38.1555841,22.6786182 38.1555841,23.2056073 C38.1555841,23.4066036 38.3198123,23.5692436 38.5227716,23.5692436 C38.7257308,23.5692436 38.8899591,23.4066036 38.8899591,23.2056073 C38.8899591,22.2773382 38.1276117,21.5223709 37.1906447,21.5223709 C36.9876855,21.5223709 36.8234572,21.6850109 36.8234572,21.8860073 C36.8234572,22.0870036 36.9876855,22.2496436 37.1906447,22.2496436 Z" id="Path" fill="url(#linearGradient-6)"></path>
                        <path d="M35.8563588,27.6019127 C35.9997895,27.7439564 36.2321458,27.7439636 36.3755839,27.6019127 C36.5190147,27.4598691 36.5190147,27.2297527 36.3755839,27.0877091 L32.1956022,22.9485018 C32.0521714,22.8064582 31.8198078,22.8064582 31.676377,22.9485018 C31.5329462,23.0905455 31.5329463,23.3206618 31.676377,23.4627055 L35.8563588,27.6019127 Z" id="Path" fill="url(#linearGradient-7)"></path>
                        <path d="M32.9514944,28.8646982 C33.0949252,29.0067418 33.3272814,29.0067491 33.4707195,28.8646982 C33.6141503,28.7226545 33.6141503,28.4925382 33.4707195,28.3504945 L30.9204848,25.8256364 C30.7770541,25.6835927 30.5446905,25.6835927 30.4012597,25.8256364 C30.2578289,25.96768 30.2578289,26.1977964 30.4012597,26.33984 L32.9514944,28.8646982 Z" id="Path" fill="url(#linearGradient-8)"></path>
                    </g>
                </g>
            </g>
        </g>
    </g>
</svg>

<svg width="51px" height="48px" xmlns="http://www.w3.org/2000/svg" viewBox="0 0 47 48">
  <defs/>
  <defs>
    <linearGradient id="a" x1="50%" x2="50%" y1="0%" y2="100%">
      <stop offset="0%" stop-color="#062FF9"/>
      <stop offset="100%" stop-color="#0225D0"/>
    </linearGradient>
    <linearGradient id="b" x1="50%" x2="50%" y1="0%" y2="100%">
      <stop offset="0%" stop-color="#062FF9"/>
      <stop offset="100%" stop-color="#0225D0"/>
    </linearGradient>
    <linearGradient id="c" x1="50%" x2="50%" y1="0%" y2="100%">
      <stop offset="0%" stop-color="#062FF9"/>
      <stop offset="100%" stop-color="#0225D0"/>
    </linearGradient>
    <linearGradient id="d" x1="50%" x2="50%" y1="0%" y2="100%">
      <stop offset="0%" stop-color="#062FF9"/>
      <stop offset="100%" stop-color="#0225D0"/>
    </linearGradient>
    <linearGradient id="e" x1="50%" x2="50%" y1="0%" y2="100%">
      <stop offset="0%" stop-color="#062FF9"/>
      <stop offset="100%" stop-color="#0225D0"/>
    </linearGradient>
    <linearGradient id="f" x1="50%" x2="50%" y1="0%" y2="100%">
      <stop offset="0%" stop-color="#062FF9"/>
      <stop offset="100%" stop-color="#0225D0"/>
    </linearGradient>
    <linearGradient id="g" x1="50%" x2="50%" y1="0%" y2="100%">
      <stop offset="0%" stop-color="#062FF9"/>
      <stop offset="100%" stop-color="#0225D0"/>
    </linearGradient>
    <linearGradient id="h" x1="50%" x2="50%" y1="0%" y2="100%">
      <stop offset="0%" stop-color="#062FF9"/>
      <stop offset="100%" stop-color="#0225D0"/>
    </linearGradient>
  </defs>
  <g fill="none" fill-rule="nonzero">
    <path fill="url(#a)" d="M11.064 44.775a.655.655 0 100 1.309.655.655 0 100-1.31z"/>
    <path fill="url(#b)" d="M6.812 44.775a.655.655 0 100 1.309.655.655 0 100-1.31z"/>
    <path fill="url(#c)" d="M8.934 44.775a.66.66 0 00-.66.654.66.66 0 00.66.655c.368 0 .669-.291.669-.655a.661.661 0 00-.669-.654z"/>
    <path fill="url(#d)" d="M42.55 28.371c2.71-1.255 4.45-3.94 4.45-6.913 0-3.844-2.84-7.05-6.652-7.572-.696-4.377-4.533-7.643-9.042-7.643-.974 0-1.937.153-2.867.455C26.692 2.84 22.848.367 18.55.367 12.683.367 7.89 5.01 7.723 10.843 3.298 11.546 0 15.35 0 19.821c0 3.186 1.701 6.142 4.443 7.78v14.017c0 .627.253 1.195.66 1.615H3.654a1.829 1.829 0 00-1.836 1.818v.764c0 1.003.824 1.818 1.836 1.818H43.34a1.829 1.829 0 001.836-1.818v-.764a1.829 1.829 0 00-1.836-1.818h-1.45c.406-.42.66-.988.66-1.615V28.371zM.734 19.821c0-4.21 3.18-7.78 7.397-8.3.184-.023.322-.244.322-.427 0-5.514 4.53-10 10.098-10 4.114 0 7.783 2.433 9.346 6.197a.367.367 0 00.466.202 8.566 8.566 0 012.943-.522c4.236 0 7.827 3.133 8.353 7.289a.365.365 0 00.327.316c3.58.358 6.28 3.317 6.28 6.882a6.897 6.897 0 01-3.716 6.107v-7.329c0-1.291-1.061-2.341-2.365-2.341H6.808c-1.304 0-2.365 1.05-2.365 2.341v6.516a8.368 8.368 0 01-3.709-6.93zm4.443.415c0-.89.732-1.614 1.63-1.614h33.378c.9 0 1.63.724 1.63 1.614v21.382c0 .89-.73 1.615-1.63 1.615H6.808c-.9 0-1.63-.725-1.63-1.615V20.236zm14.169 23.725h8.302v.741c0 .2-.165.364-.367.364h-7.568a.366.366 0 01-.367-.364v-.741zm25.096 1.09v.764c0 .602-.495 1.09-1.102 1.09H3.654c-.607 0-1.101-.488-1.101-1.09v-.764c0-.601.494-1.09 1.101-1.09h14.957v.741c0 .602.495 1.091 1.102 1.091h7.568c.607 0 1.101-.49 1.101-1.09v-.742H43.34c.607 0 1.102.489 1.102 1.09z"/>
    <path fill="url(#e)" d="M8.138 41.985h30.718c.937 0 1.7-.755 1.7-1.684V21.556c0-.927-.763-1.682-1.7-1.682H8.138c-.937 0-1.699.755-1.699 1.682v18.745c0 .929.762 1.684 1.7 1.684zm-.965-20.429c0-.527.433-.955.965-.955h30.718c.532 0 .965.428.965.955v18.745a.962.962 0 01-.965.956H8.138a.962.962 0 01-.965-.956V21.556z"/>
    <path fill="url(#f)" d="M37.19 22.25c.533 0 .966.429.966.956 0 .2.164.363.367.363a.365.365 0 00.367-.363c0-.929-.762-1.684-1.7-1.684a.365.365 0 00-.367.364c0 .201.165.364.368.364z"/>
    <path fill="url(#g)" d="M35.856 27.602a.37.37 0 00.52 0 .361.361 0 000-.514l-4.18-4.14a.37.37 0 00-.52 0 .361.361 0 000 .515l4.18 4.139z"/>
    <path fill="url(#h)" d="M32.951 28.865a.37.37 0 00.52 0 .361.361 0 000-.515l-2.55-2.524a.37.37 0 00-.52 0 .361.361 0 000 .514l2.55 2.525z"/>
  </g>
</svg>
